icons/evolvere-flat-vivid-sunken-dark-fallback/actions/64/document-open-recent.svg

<?xml version="1.0" encoding="UTF-8" standalone="no"?>
<!-- Created with Inkscape (http://www.inkscape.org/) -->

<svg
   xmlns:dc="http://purl.org/dc/elements/1.1/"
   xmlns:cc="http://creativecommons.org/ns#"
   xmlns:rdf="http://www.w3.org/1999/02/22-rdf-syntax-ns#"
   xmlns:svg="http://www.w3.org/2000/svg"
   xmlns="http://www.w3.org/2000/svg"
   xmlns:xlink="http://www.w3.org/1999/xlink"
   xmlns:sodipodi="http://sodipodi.sourceforge.net/DTD/sodipodi-0.dtd"
   xmlns:inkscape="http://www.inkscape.org/namespaces/inkscape"
   version="1.1"
   width="64"
   height="64"
   id="svg13094"
   inkscape:version="0.48.4 r9939"
   sodipodi:docname="document-open-recent.svg">
  <sodipodi:namedview
     pagecolor="#ffffff"
     bordercolor="#666666"
     borderopacity="1"
     objecttolerance="10"
     gridtolerance="10"
     guidetolerance="10"
     inkscape:pageopacity="0"
     inkscape:pageshadow="2"
     inkscape:window-width="1920"
     inkscape:window-height="1022"
     id="namedview59"
     showgrid="true"
     inkscape:zoom="7.375"
     inkscape:cx="53.061727"
     inkscape:cy="28.83708"
     inkscape:window-x="-5"
     inkscape:window-y="23"
     inkscape:window-maximized="1"
     inkscape:current-layer="svg13094">
    <inkscape:grid
       type="xygrid"
       id="grid4211" />
  </sodipodi:namedview>
  <defs
     id="defs11">
    <linearGradient
       x1="31"
       y1="64"
       x2="31"
       y2="2"
       id="linearGradient3984"
       gradientUnits="userSpaceOnUse">
      <stop
         id="stop3099"
         style="stop-color:#ececec;stop-opacity:1"
         offset="0" />
      <stop
         id="stop3875"
         style="stop-color:#ececec;stop-opacity:1"
         offset="0.5" />
      <stop
         id="stop3027"
         style="stop-color:#efefef;stop-opacity:1"
         offset="0.50492072" />
      <stop
         id="stop3873"
         style="stop-color:#e6e6e6;stop-opacity:1"
         offset="0.51612902" />
      <stop
         id="stop3101"
         style="stop-color:#e1e1e1;stop-opacity:1"
         offset="1" />
    </linearGradient>
    <linearGradient
       x1="29.875"
       y1="64.082283"
       x2="29.875"
       y2="2"
       id="linearGradient3975-7"
       xlink:href="#linearGradient3969-4"
       gradientUnits="userSpaceOnUse" />
    <linearGradient
       id="linearGradient3969-4">
      <stop
         id="stop3971-4"
         style="stop-color:#fca834;stop-opacity:1"
         offset="0" />
      <stop
         id="stop3979-0"
         style="stop-color:#fca834;stop-opacity:1"
         offset="0.50066268" />
      <stop
         id="stop3981-1"
         style="stop-color:#f09b25;stop-opacity:1"
         offset="0.50066268" />
      <stop
         id="stop3973-3"
         style="stop-color:#f09b25;stop-opacity:1"
         offset="1" />
    </linearGradient>
  </defs>
  <metadata
     id="metadata13099">
    <rdf:RDF>
      <cc:Work
         rdf:about="">
        <dc:format>image/svg+xml</dc:format>
        <dc:type
           rdf:resource="http://purl.org/dc/dcmitype/StillImage" />
        <dc:title />
      </cc:Work>
    </rdf:RDF>
  </metadata>
  <path
     d="M 4,0 64,0 64,62 4,62 z"
     id="path3960"
     style="color:#000000;fill:#e38d16;fill-opacity:1;fill-rule:nonzero;stroke-width:1;stroke-linecap:butt;stroke-linejoin:miter;stroke-miterlimit:4;stroke-opacity:1;stroke-dasharray:none;stroke-dashoffset:0;marker:none;visibility:visible;display:inline;overflow:visible;enable-background:accumulate;opacity:1;stroke:none" />
  <path
     style="opacity:1;fill:#8c3d00;fill-rule:nonzero;fill-opacity:0.33273704;stroke:none;stroke-width:1;stroke-linecap:butt;stroke-linejoin:miter;stroke-miterlimit:4;stroke-dasharray:none;stroke-dashoffset:0;stroke-opacity:1;marker:none"
     d="M 60 2 L 60 33 L 35.677734 62 L 64 62 L 64 37 L 64 6 L 60 2 z "
     id="path3900" />
  <path
     d="M 0,2 60,2 60,33 34,64 0,64 z"
     id="path3982"
     style="fill:url(#linearGradient3984);fill-rule:nonzero" />
  <path
     d="M 0,2 60,2 60,33 34,64 0,64 z"
     id="path4257"
     style="color:#000000;fill:url(#linearGradient3975-7);fill-opacity:1;fill-rule:nonzero;stroke-width:1;stroke-linecap:butt;stroke-linejoin:miter;stroke-miterlimit:4;stroke-opacity:1;stroke-dasharray:none;stroke-dashoffset:0;marker:none;visibility:visible;display:inline;overflow:visible;enable-background:accumulate" />
  <path
     d="M 21,8 C 12.163444,8 5,15.163444 5,24 5,29.436691 7.7304615,34.233619 11.875,37.125 14.766381,41.26954 19.563309,44 25,44 33.836556,44 41,36.83656 41,28 41,22.563309 38.269538,17.766381 34.125,14.875 31.233619,10.730462 26.436691,8 21,8 z"
     id="path3045"
     style="color:#000000;fill:#8c3d00;fill-opacity:0.33273704;fill-rule:nonzero;stroke:none;stroke-width:1;marker:none;visibility:visible;display:inline;overflow:visible;enable-background:accumulate;opacity:1;stroke-linecap:butt;stroke-linejoin:miter;stroke-miterlimit:4;stroke-dasharray:none;stroke-dashoffset:0;stroke-opacity:1"
     inkscape:connector-curvature="0" />
  <path
     d="M 37.000001,24 A 16.000001,16.000001 0 0 1 5,24 16.000001,16.000001 0 1 1 37.000001,24 z"
     id="path3840"
     style="color:#000000;fill:#f3f3f3;fill-opacity:1;fill-rule:nonzero;stroke:none;stroke-width:2.28571415;marker:none;visibility:visible;display:inline;overflow:visible;enable-background:accumulate"
     inkscape:connector-curvature="0" />
  <path
     d="M 34,24 A 12.999999,12.999999 0 0 1 8.0000011,24 12.999999,12.999999 0 1 1 34,24 z"
     id="path4024"
     style="color:#000000;fill:#e6dfd7;fill-opacity:1;fill-rule:nonzero;stroke:none;stroke-width:2.72527480000000022;marker:none;visibility:visible;display:inline;overflow:visible;enable-background:accumulate"
     inkscape:connector-curvature="0" />
  <path
     d="M 20.96875,12 C 20.438546,12 20,12.446 20,13 l 0,9.28125 C 19.403105,22.627292 19,23.260396 19,24 c 0,1.104569 0.895431,2 2,2 1.104569,0 2,-0.895431 2,-2 0,-0.739604 -0.403105,-1.372708 -1,-1.71875 L 22,13 c 0,-0.554 -0.438546,-1 -0.96875,-1 l -0.0625,0 z m 2.875,13.8125 c -0.255619,0 -0.522881,0.116631 -0.71875,0.3125 -0.391737,0.391737 -0.391737,1.014513 0,1.40625 l 3.53125,3.53125 c 0.391737,0.391737 1.014513,0.391737 1.40625,0 0.391737,-0.391737 0.391737,-1.014513 0,-1.40625 L 24.53125,26.125 c -0.195869,-0.195869 -0.431881,-0.3125 -0.6875,-0.3125 z"
     id="path3077"
     style="color:#000000;fill:#635451;fill-opacity:1;fill-rule:nonzero;stroke:none;stroke-width:2.28571415000000000;marker:none;visibility:visible;display:inline;overflow:visible;enable-background:accumulate"
     inkscape:connector-curvature="0" />
  <path
     d="M 34,64 60,33 c -2.328567,2.776369 -4.36141,3 -11,3 H 37 v 15 c 0,6.64407 0.04437,9.37018 -3,13 z"
     id="path4278"
     style="fill:#e68e13;fill-rule:nonzero;opacity:1;fill-opacity:1;stroke:none;stroke-width:1;stroke-linecap:butt;stroke-linejoin:miter;stroke-miterlimit:4;stroke-dasharray:none;stroke-dashoffset:0;stroke-opacity:1;marker:none" />
</svg>

<svg xmlns="http://www.w3.org/2000/svg" viewBox="0 0 64 64"><defs><linearGradient y1="64" x2="0" y2="2" id="0" gradientUnits="userSpaceOnUse"><stop stop-color="#ececec"/><stop offset=".5" stop-color="#ececec"/><stop offset=".505" stop-color="#efefef"/><stop offset=".516" stop-color="#e6e6e6"/><stop offset="1" stop-color="#e1e1e1"/></linearGradient><linearGradient y1="64.08" x2="0" y2="2" id="1" gradientUnits="userSpaceOnUse"><stop stop-color="#fca834"/><stop offset=".501" stop-color="#fca834"/><stop offset=".501" stop-color="#f09b25"/><stop offset="1" stop-color="#f09b25"/></linearGradient></defs><path d="m4 0h60v62h-60z" color="#000" fill="#e38d16"/><path d="m60 2v31l-24.322 29h28.322v-25-31l-4-4" fill="#8c3d00" fill-opacity=".333"/><path d="m0 2h60v31l-26 31h-34z" fill="url(#0)"/><g color="#000"><path d="m0 2h60v31l-26 31h-34z" fill="url(#1)"/><path d="m21 8c-8.837 0-16 7.163-16 16 0 5.437 2.73 10.234 6.875 13.13 2.891 4.145 7.688 6.875 13.13 6.875 8.837 0 16-7.163 16-16 0-5.437-2.73-10.234-6.875-13.12-2.891-4.145-7.688-6.875-13.12-6.875" fill-opacity=".333" fill="#8c3d00"/><path d="M37 24A16 16 0 0 1 5 24 16 16 0 1 1 37 24" fill="#f3f3f3"/><path d="M34 24A12.999999 12.999999 0 0 1 8 24 12.999999 12.999999 0 1 1 34 24" fill="#e6dfd7"/><path d="m20.969 12c-.53 0-.969.446-.969 1v9.281c-.597.346-1 .979-1 1.719 0 1.105.895 2 2 2 1.105 0 2-.895 2-2 0-.74-.403-1.373-1-1.719v-9.281c0-.554-.439-1-.969-1h-.063m2.875 13.813c-.256 0-.523.117-.719.313-.392.392-.392 1.015 0 1.406l3.531 3.531c.392.392 1.015.392 1.406 0 .392-.392.392-1.015 0-1.406l-3.531-3.531c-.196-.196-.432-.313-.688-.313" fill="#635451"/></g><path d="m34 64l26-31c-2.329 2.776-4.361 3-11 3h-12v15c0 6.644.044 9.37-3 13" fill="#e68e13"/></svg>
